!!!SOCIAL_FUNCTION:	songs concerning the sacred stones
!!!PDT:	1918

Specific Region: Dakotas, Minnesota, Montana, Nebraska
!!!REG: Dakotas and Montana
!!!LING_GROUP: Siouan
!!!LANG: Tone
!!!OTL@ENG: A Wolf Nation Called Me `Father'
!!!ONM: No. 67
**kern
*Imale
*clefF4
*k[f#c#g#]
*M2/4
*>[A,A]
*>norep[A]
*>A
=!|:
*MM92
8c#
8c#
8e
=1||
*M3/4
2c#
8B
8B
=2||
*M2/4
[2A
=3
8A]
8c#
8c#
8e
=4||
*M3/4
2c#
8B
8B
=5||
*M2/4
8A
8c#
8c#
8e
=6||
*M3/4
2c#
8B
8B
=7||
*M2/4
8B
8B
8B
[8A
=8
4A]
8F#
8F#
=9||
[2F#
=10
8F#]
8B
8B
8c#
=11||
*M3/4
2B
8A
8A
=12||
*M2/4
8F#
8A
8A
8B
=13||
*M3/4
2B
8A
8A
=14
*M2/4
8A
8A
8A
[8A
=15
4A]
8F#
8F#
!!!RNB: Bar 16 in source is a double barline.
=16
[2F#
=17
8F#]
8C#
8C#
8E
=18||
*M3/4
2C#
8BB
8BB
=19
*M2/4
8AA
8C#
8C#
8E
=20||
*M3/4
2C#
8BB
8BB
=21||
*M2/4
8BB
8BB
8BB
[8AA
=22
4AA]
8FF#
8FF#
=23
[2FF#
=24
8FF#]
==:|!
*-
!!!CNT: Native American -- Sioux
!!!MRD: 1911/07//-1914///
!!!OCL: Frances Densmore
!!!YOR1: Teton Sioux Music, Bulletin 61,
!!!YOR2: Bureau of American Ethnology, Smithsonian Institution
!!!PPR: Government Printing Office
!!!PPP: Washington, D.C.
!!!PDT: 1918///
!!!ENC: Craig Stuart Sapp
!!!END: 2002/03/25/
!!!EEV: 2002/03/31/
!!!AGN: Song of Personal Dreams/Song Concerning the Sacred Stones
!!!MPN@@SIO: Waha'chungka-nong'pa
!!!MPN@ENG: Two Shields
!!!TXO: Teton Sioux
!!!MLC: Standing Rock Reservation, South Dakota, United States of America
!!!ARL: 45.9/-100.7#
!!!catalog: Catalogue No. 541
!!!PPG: 224
!!!EFL: 67/245
!!!VTS: 516522267
